X: 19
T:Celtic Society's Quickstep The
M:4/4
L:1/8
S:Irtrad-l, P. de Grae, 11/97
K:AMix
|: A2 AA c2 BA | c2 e2 e2 a2 | A2 AA c2 BA | dcBA GABG |A2 AA c2 BA |!
 c2 e2 e2 g2 | B2 AB GABd | e2 A2 A2 :: e2 |a2 e2 c2 BA | c2 e2 e2 ^g2 |
